packages/assets/static/images/icons/closed-captioning.svg

<svg width="24" height="24" viewBox="0 0 24 24" xmlns="http://www.w3.org/2000/svg">
<path d="M21 19.5H3C2.17313 19.5 1.5 18.8269 1.5 18V6C1.5 5.17313 2.17313 4.5 3 4.5H21C21.8269 4.5 22.5 5.17313 22.5 6V18C22.5 18.8269 21.8269 19.5 21 19.5ZM3 6L2.99906 18H21V6H3Z"/>
<path d="M9.0075 15.7519C8.68125 15.7519 8.35313 15.7088 8.02875 15.6225C7.06125 15.3628 6.25313 14.7422 5.7525 13.8741C4.71938 12.0825 5.33625 9.78563 7.12781 8.7525C8.28375 8.08594 9.71906 8.08594 10.875 8.7525C11.2341 8.95969 11.3569 9.41813 11.1497 9.77719C10.9425 10.1363 10.4841 10.2591 10.125 10.0519C9.43125 9.65156 8.57063 9.65156 7.87688 10.0519C6.8025 10.6716 6.43219 12.0506 7.05188 13.125C7.35188 13.6453 7.8375 14.0184 8.41781 14.1741C8.99813 14.3297 9.60469 14.25 10.125 13.95C10.4841 13.7428 10.9425 13.8656 11.1497 14.2247C11.3569 14.5837 11.2331 15.0422 10.875 15.2494C10.2975 15.5822 9.65625 15.7519 9.0075 15.7519Z"/>
<path d="M16.5075 15.7491C15.21 15.7491 13.9462 15.0759 13.2525 13.8731C12.2194 12.0816 12.8362 9.78469 14.6278 8.75156C15.7837 8.085 17.2191 8.085 18.375 8.75156C18.7341 8.95875 18.8569 9.41719 18.6497 9.77625C18.4425 10.1353 17.9841 10.2581 17.625 10.0509C16.9312 9.65062 16.0706 9.65062 15.3769 10.0509C14.3025 10.6706 13.9322 12.0497 14.5519 13.1241C14.8519 13.6444 15.3375 14.0175 15.9178 14.1731C16.4981 14.3287 17.1047 14.2491 17.625 13.9491C17.9841 13.7419 18.4425 13.8656 18.6497 14.2238C18.8569 14.5828 18.7331 15.0412 18.375 15.2484C17.7862 15.5878 17.1431 15.7491 16.5075 15.7491Z"/>
</svg>

<svg viewBox="0 0 24 24" xmlns="http://www.w3.org/2000/svg" aria-hidden="true" fill="currentColor"><path d="M21 19.5H3c-.827 0-1.5-.673-1.5-1.5V6c0-.827.673-1.5 1.5-1.5h18c.827 0 1.5.673 1.5 1.5v12c0 .827-.673 1.5-1.5 1.5M3 6v12h18V6z"/><path d="M9.008 15.752q-.491 0-.98-.13a3.73 3.73 0 0 1-2.275-1.748 3.753 3.753 0 0 1 1.375-5.122 3.76 3.76 0 0 1 3.747 0 .75.75 0 1 1-.75 1.3c-.694-.4-1.554-.4-2.248 0a2.253 2.253 0 0 0-.825 3.073 2.244 2.244 0 0 0 3.073.825.75.75 0 1 1 .75 1.3 3.73 3.73 0 0 1-1.867.502m7.5-.003a3.75 3.75 0 0 1-3.255-1.876 3.753 3.753 0 0 1 1.375-5.121 3.76 3.76 0 0 1 3.747 0 .75.75 0 1 1-.75 1.299c-.694-.4-1.554-.4-2.248 0a2.253 2.253 0 0 0-.825 3.073 2.244 2.244 0 0 0 3.073.825.75.75 0 0 1 .75 1.3c-.589.339-1.232.5-1.867.5"/></svg>
